!!!!SEGMENT: pl-wtm--r-66-n--006_noskowski-zygmunt--piesni-ludowe-op-51-a-wa-kolysanka.krn
!!!cenid: 18xx:2284
!!!COM: Noskowski, Zygmunt
!!!COM-rismid: pe106604
!!!CDT: 1846/05/02-1909/07/23
!!!CNT: Polish
!!!OTL: Pieśni ludowe op. 51 - A-wa Kołysanka
!!!PDT:
!!!AGN: Secular; Song
!!!SMS-siglum: PL-Wtm
!!!SMS-shelfmark: R 66/N
!!!SMS-shelfwork: 006 G
!!!SMS-variant:
!!!SMS-altvar:
!!!NIFC-rismid: 1001096667
!!!OMD: Andante con moto
!!!system-decoration: {(s1,s2)}
**kern	**dynam	**kern	**text	**text	**text	**dynam
*part2	*part2	*part1	*part1	*part1	*part1	*part1
*staff2	*	*staff1	*staff1	*staff1	*staff1	*
*I"Basy	*	*I"Tenory	*	*	*	*
*I'B	*	*I'T	*	*	*	*
*clefF4	*	*clefG2v2	*	*	*	*
*k[b-e-a-d-]	*	*k[b-e-a-d-]	*	*	*	*
*A-:	*	*A-:	*	*	*	*
*M2/4	*	*M2/4	*	*	*	*
*>[A,A,A]	*	*>[A,A,A]	*	*	*	*
=1	=1	=1	=1	=1	=1	=1
*^	*	*	*	*	*	*
*	*	*	*^	*	*	*	*
*	*	*	*	*	*	*	*	*^
*	*	*	*	*	*	*	*	*	*^
*>A	*>A	*	*>A	*>A	*	*	*	*	*	*
!!LO:TX:t=P:problem:all\left, middle right:global	!
!	!	!	!LO:TX:t=P:problem:inna dynamika dla każdej zwrotki	!	!	!	!	!	!	!
!	!	!	!LO:TX:t=P:problem:w źródle brak przenośnika oktawowego przy kluczu	!	!	!	!	!	!	!
!	!	!	!	!	!	!	!	!LO:DY:b:rj	!LO:DY:b:rj	!LO:DY:b:rj
4A-/	4A-\	.	4e-/	4c\	1. A-	2. Kuj,	3. Kuj,	mf	p	pp
4A-/	4D-\	.	4f/	4d-\	-wa,	kuj	kuj	.	.	.
*	*	*	*	*	*	*	*	*	*v	*v
*	*	*	*	*	*	*	*	*v	*v
=2	=2	=2	=2	=2	=2	=2	=2	=2
8G/	8E-\	.	8e-/	8B-\	kot-	ko-	ko-	.
8G/	8D-\	.	8e-/	8B-\	-ki	-wa-	-wa-	.
4A-/	4C\	.	4a-/	4e-\	dwa	-lu,	-lu,	.
=3	=3	=3	=3	=3	=3	=3	=3	=3
8G/	8BB-\	.	8e-/	8d-\	Sza-	Po-	Po-	.
8G-X/	8AA-\	.	8e-/	8c\	-re	-je-	-je-	.
8F/	8D-\	.	8f/	8d-\	bu-	-dzie-	-dzie-	.
8Gn/	8E-\	.	8f/	8d-\	-re	-ma	-ma	.
=4	=4	=4	=4	=4	=4	=4	=4	=4
8A-/	8F\	.	8e-/	8c\	o-	do	do	.
8B-/	8G\	.	8d-/	8B-\	-by-	bo-	bo-	.
4A-/	4A-\	.	4c/	4c\	-dwa,	-ru,	-ru,	.
=5	=5	=5	=5	=5	=5	=5	=5	=5
8G/	8C\	.	8e-/	8c\	Le-	A	A	.
8G/	8C\	.	8e-/	8c\	-cą	od	od	.
8G/	8E-\	.	8B-/	8G\	le-	bo-	ma-	.
8G/	8E-\	.	8B-/	8G\	-cą	-ru	-my	.
!!LO:PB:g=original
=6	=6	=6	=6	=6	=6	=6	=6	=6
8F/	8BB-\	.	8d-/	8B-\	do	do	do	.
8F/	8BB-\	.	8d-/	8B-\	la-	ma-	ta-	.
4F/	4F\	.	4c/	4A-\	-sa,	-my,	-ty,	.
=7	=7	=7	=7	=7	=7	=7	=7	=7
8G/	(>16E-\LL	.	8e-/	8B-\	I	Do-	Jest	.
.	16D-\JJ)	.	.	.	.	.	.	.
8A-/	8C\	.	8e-/	8A-\	wo-	-sta-	tam	.
8F/	8D-\	.	8B-/	8B-\	-ła-	-nie-	pie-	.
8F/	8Dn\	.	8B-/	8A-\	-ją	-ma	-sek	.
=8	=8	=8	=8	=8	=8	=8	=8	=8
8E-/	8E-\	.	8c/	8G\	hop	śmie-	ku-	.
8E-/	8D-X\	.	8B-/	8G\	sa	-ta-	-dła-	.
(>8E-/L	(<8C\L	.	4A-/	4A-\	sa	-ny.	-ty.	.
8D-/J)	8BB-\J)	.	.	.	.	.	.	.
=9	=9	=9	=9	=9	=9	=9	=9	=9
!	!	!LO:DY:a:rj	!	!	!	!	!	!LO:DY:a:rj
(>4C/	(<4AA-\	p	(>4A-/	(<8F\L	A	.	.	p
.	.	.	.	8E-\	.	.	.	.
4D-/	4GG\	.	4B-/	8F\	.	.	.	.
.	.	.	.	8E-\J	.	.	.	.
=10	=10	=10	=10	=10	=10	=10	=10	=10
8C/L	8AA-\L	.	8A-/L	8F\L	.	.	.	.
8D-/J	8BB-\J	.	8G/J	8E-\	.	.	.	.
4C/)	4C\)	.	4A-/)	8F\	.	.	.	.
.	.	.	.	8E-\J)	.	.	.	.
!!LO:LB:g=original
=11	=11	=11	=11	=11	=11	=11	=11	=11
(>8F/L	(<8D-\L	.	(>8B-/L	(<4.A-\	A	.	.	.
8E-/	8C\	.	8c/	.	.	.	.	.
8F/	8BB-\	.	8d-/	.	.	.	.	.
8E-/J	8C\J	.	8c/J	8G\	.	.	.	.
=12	=12	=12	=12	=12	=12	=12	=12	=12
8F/L	8D-\L	.	8B-/L	8F\L	.	.	.	.
8E-/	8E-\J	.	16c/L	8G\J	.	.	.	.
.	.	.	16B-/JJ	.	.	.	.	.
8F/	4AA-\)	.	4A-/)	4A-\)	.	.	.	.
8E-/J)	.	.	.	.	.	.	.	.
=13	=13	=13	=13	=13	=13	=13	=13	=13
!	!	!LO:DY:a:rj	!	!	!	!	!	!LO:DY:a:rj
(>8F/L	(<8D-\L	pp	(>4A-/	[<2F\	A	.	.	pp
8E-/J	8C\	.	.	.	.	.	.	.
4D-/	8BB-\	.	4B-/	.	.	.	.	.
.	8AA-\J	.	.	.	.	.	.	.
=14	=14	=14	=14	=14	=14	=14	=14	=14
8D-/L	8BB-\L	.	8A-/L	8F\L]	.	.	.	.
8C/J	8C\J	.	8G/J	8En\J	.	.	.	.
4F/)	8F\L	.	4A-/)	4F\	.	.	.	.
.	8E-\J)	.	.	.	.	.	.	.
=15	=15	=15	=15	=15	=15	=15	=15	=15
(>4.F/	(<8D-\L	.	(>8B-/L	(<4G\	A	.	.	.
.	8C\	.	8c/	.	.	.	.	.
.	8BB-\	.	8d-/	8A-\L	.	.	.	.
!LO:TX:b:Bi:t=rall.	!	!	!LO:TX:b:Bi:t=rall.	!	!	!	!	!
8En/	8C\J	.	8c/J	8G\J	.	.	.	.
=16	=16	=16	=16	=16	=16	=16	=16	=16
8F/L	8D-\L	.	8B-/L	8F\L	.	.	.	.
8E-X/J	8E-\J	.	16c/L	8G\J	.	.	.	.
.	.	.	16B-/JJ	.	.	.	.	.
4C;>/)	4AA-;<\)	.	4A-;>/)	4E-;<\)	.	.	.	.
*v	*v	*	*	*	*	*	*	*
*	*	*v	*v	*	*	*	*
==:|!	==:|!	==:|!	==:|!	==:|!	==:|!	==:|!
*-	*-	*-	*-	*-	*-	*-
!!title: @{OTL};
!!!RDF**kern: > = above
!!!RDF**kern: < = below
!!!RDF**kern: | = vertical stroke
!!!RDF**kern: N = linked
!!!RDF**kern: i = editorial accidental
!!!EED: Wojciech Jakubiak-Danek
!!!EST: 2021-06-09
!!!URL-scan: http://repozytorium.nifc.pl/skany/pl-wtm-nut--r66n
!!!ONB-nifc: UWAGA: na podstawie partytur z folderu pl-wtm-r66n
!!!ENC: Marcin Jachim
!!!END: 2021-05-31
